icon/ii/underline.svg

<svg xmlns="http://www.w3.org/2000/svg" viewBox="0 0 8 8" height="1em" width="1em">
  <path d="M1 0v4c0 1.1 1.12 2 2.5 2h.5c1.1 0 2-.9 2-2v-4h-1v4c0 .55-.45 1-1 1s-1-.45-1-1v-4h-2zm-1 7v1h7v-1h-7z"/>
</svg>

<svg xmlns="http://www.w3.org/2000/svg" width="8" height="8"><path d="M1 0v4c0 1.1 1.12 2 2.5 2H4c1.1 0 2-.9 2-2V0H5v4c0 .55-.45 1-1 1s-1-.45-1-1V0H1zM0 7v1h7V7H0z"/></svg>
